!!!OTL: ICH WOLLT EINMAL RECHT FRUEH AUFSTEHN
!!!ARE: Europa, Mitteleuropa, Deutschland, Thueringen; Sachsen
!!!SCT: E0096B
!!!YEM: Copyright 1995, estate of Helmut Schaffrath.
**kern
*ICvox
*Ivox
*M3/4
*k[b-]
*F:
{8c
8f
16g
16b-
=1
8a
8g
8f
8cc
16dd
16cc
16b-
16a
=2
4g
8r}
{16cc
16b-
8a
8cc
=3
8cc
16b-
16a
8b-
16b-
16a
8g
8b-
=4
8b-
16a
16g
8a}
{16cc
16b-
8a
8g
=5
4f
8r
16cc
16b-
8a
8g
=6
4f
8r}
{16cc
16b-
8a
8cc
=7
8cc
16b-
16a
8b-
16b-
16a
8g
8b-
=8
8b-
16a
16g
8a}
{16cc
16b-
8a
8g
=9
4f
8r
16cc
16b-
8a
8g
=10
4f
8r}
==
!!!AGN: erzaehlendes Volks - Lied, Sage, Liebe, Leid, Tod, Ballade ?
!!!ONB: ESAC (Essen Associative Code) Database: ERK1
!!!AMT: simple triple
!!!AIN: vox
!!!EED: Helmut Schaffrath
!!!EEV: 1.0
*-
